**kern	**text	**kern	**text	**kern	**text	**kern	**text	**kern	**text
*staff5	*staff5	*staff4	*staff4	*staff3	*staff3	*staff2	*staff2	*staff1	*staff1
*I"Basso	*	*I"Tenore	*	*I"Alto	*	*I"Soprano II	*	*I"Soprano I	*
=1-	=1-	=1-	=1-	=1-	=1-	=1-	=1-	=1-	=1-
*clefF4	*	*clefGv2	*	*clefGv2	*	*clefG2	*	*clefG2	*
*k[]	*	*k[]	*	*k[]	*	*k[]	*	*k[]	*
*met(c|)	*	*met(c|)	*	*met(c|)	*	*met(c|)	*	*met(c|)	*
*M2/2	*	*M2/2	*	*M2/2	*	*M2/2	*	*M2/2	*
[1AA	Se-	[1E	Se-	[1A	Se-	1r	.	[1c	Se-
=2	=2	=2	=2	=2	=2	=2	=2	=2	=2
1AA]	.	1E]	.	1A]	.	1r	.	1c]	.
=3	=3	=3	=3	=3	=3	=3	=3	=3	=3
1GG	-pul-	1G	-pul-	1B-	-pul-	1r	.	1d	-pul-
=4	=4	=4	=4	=4	=4	=4	=4	=4	=4
1AA	-to	1C	-to	1A	-to	1r	.	2f/	-to
.	.	.	.	.	.	.	.	[2e/	Do-
=5	=5	=5	=5	=5	=5	=5	=5	=5	=5
[1BB-	Do-	[1D	Do-	[1F	Do-	1r	.	2e/]	.
.	.	.	.	.	.	.	.	4d/	.
.	.	.	.	.	.	.	.	4c/	.
=6	=6	=6	=6	=6	=6	=6	=6	=6	=6
2BB-/]	.	2D/]	.	2F/]	.	1r	.	2d/	.
2BB-i/	-mi-	2D/	-mi-	2G/	-mi-	.	.	2d/	-mi-
=7	=7	=7	=7	=7	=7	=7	=7	=7	=7
1AA	-no,	1E	-no,	1A	-no,	1r	.	1c#	-no,
=8	=8	=8	=8	=8	=8	=8	=8	=8	=8
2r	.	2r	.	2r	.	1r	.	2r	.
2AA/	si-	2A/	si-	2c#\	si-	.	.	2e/	si-
=9	=9	=9	=9	=9	=9	=9	=9	=9	=9
2AA/	-gna-	2A/	-gna-	2c#\	-gna-	1r	.	2e/	-gna-
2D\	-tum	2A/	-tum	2d\	-tum	.	.	2f/	-tum
=10	=10	=10	=10	=10	=10	=10	=10	=10	=10
1C	est	1c	est	1e	est	1r	.	1g	est
=11	=11	=11	=11	=11	=11	=11	=11	=11	=11
!!linebreak:original
1D	mo-	1A	mo-	1d	mo-	1r	.	1f	mo-
=12	=12	=12	=12	=12	=12	=12	=12	=12	=12
1E	-nu-	1G	-nu-	2B\	-nu-	1r	.	1e	-nu-
.	.	.	.	[2c\	-men-	.	.	.	.
=13	=13	=13	=13	=13	=13	=13	=13	=13	=13
1F	-men-	1A	-men-	4c\]	.	1r	.	2c/	-men-
.	.	.	.	4B\	.	.	.	.	.
.	.	.	.	[2A/	.	.	.	2d/	.
=14	=14	=14	=14	=14	=14	=14	=14	=14	=14
1E	-tum,	1B	-tum,	2A/]	.	1r	.	1e	-tum,
.	.	.	.	2G#/	-tum,	.	.	.	.
=15	=15	=15	=15	=15	=15	=15	=15	=15	=15
1r	.	2r	.	1r	.	1r	.	2r	.
.	.	2E/	vol-	.	.	.	.	2g/	vol-
=16	=16	=16	=16	=16	=16	=16	=16	=16	=16
2r	.	2F/	-ven-	2r	.	1r	.	2a/	-ven-
2C/	vol-	2E/	-tes	2e\	vol-	.	.	[2g/	-tes
=17	=17	=17	=17	=17	=17	=17	=17	=17	=17
2BB/	-ven-	1G	la-	2d\	-ven-	1r	.	2g/]	.
2C/	-tes	.	.	2e\	-tes	.	.	[2g/	la-
=18	=18	=18	=18	=18	=18	=18	=18	=18	=18
2.AA/	la-	2.A/	.	2.c\	la-	1r	.	2g/]	.
.	.	.	.	.	.	.	.	2f#/	-pi-
4AA/	-pi-	4A/	-pi-	4c\	-pi-	.	.	.	.
=19	=19	=19	=19	=19	=19	=19	=19	=19	=19
2GG/	-dem	2D/	-dem	2B\	-dem	1r	.	2g/	-dem
2GG/	ad	2G/	ad	2B\	ad	.	.	2d/	ad
=20	=20	=20	=20	=20	=20	=20	=20	=20	=20
[1C	o-	[1G	o-	[1c	o-	1r	.	[1e	o-
=21	=21	=21	=21	=21	=21	=21	=21	=21	=21
2C/]	.	2G/]	.	2c\]	.	1r	.	2e/]	.
2FF/	-sti-	2A/	-sti-	2c\	-sti-	.	.	2f/	-sti-
=22	=22	=22	=22	=22	=22	=22	=22	=22	=22
!!pagebreak:original
1FF	-um	1A	-um	1c	-um	1r	.	1f	-um
=23	=23	=23	=23	=23	=23	=23	=23	=23	=23
1C	mo-	1G	mo-	1c	mo-	1r	.	[1e	mo-
=24	=24	=24	=24	=24	=24	=24	=24	=24	=24
1AA	-nu-	1A	-nu-	1c	-nu-	1r	.	2e/]	.
.	.	.	.	.	.	.	.	2e/	-nu-
=25	=25	=25	=25	=25	=25	=25	=25	=25	=25
[1D	-men-	[1F	-men-	[1A	-men-	1r	.	2e/	-men-
.	.	.	.	.	.	.	.	4d/	.
.	.	.	.	.	.	.	.	4c/	.
=26	=26	=26	=26	=26	=26	=26	=26	=26	=26
1D]	.	1F]	.	1A]	.	1r	.	1d	.
=27	=27	=27	=27	=27	=27	=27	=27	=27	=27
[1AA	-ti:	[1E	-ti:	[1A	-ti:	1r	.	[1c#	-ti:
=28	=28	=28	=28	=28	=28	=28	=28	=28	=28
1AA]	.	1E]	.	1A]	.	1r	.	1c#]	.
=29||	=29||	=29||	=29||	=29||	=29||	=29||	=29||	=29||	=29||
1D	Po-	1F	Po-	1A	Po-	1r	.	1d	Po-
=30	=30	=30	=30	=30	=30	=30	=30	=30	=30
2D\	-nen-	2F/	-nen-	2A/	-nen-	1r	.	2d/	-nen-
2AA/	-tes	2E/	-tes	2A/	-tes	.	.	2c#/	-tes
=31	=31	=31	=31	=31	=31	=31	=31	=31	=31
2.D\	mi-	2.F/	mi-	2.A/	mi-	1r	.	2.d/	mi-
4D\	-li-	4F/	-li-	4B\	-li-	.	.	4d/	-li-
=32	=32	=32	=32	=32	=32	=32	=32	=32	=32
1C	-tes,	1G	-tes,	1c	-tes,	1r	.	1e	-tes,
=33	=33	=33	=33	=33	=33	=33	=33	=33	=33
1F	qui	1A	qui	1c	qui	1r	.	1f	qui
=34	=34	=34	=34	=34	=34	=34	=34	=34	=34
!!linebreak:original
2C/	cu-	2G/	cu-	2c\	cu-	1r	.	2e/	cu-
2D\	-sto-	2F/	-sto-	2A/	-sto-	.	.	2d/	-sto-
=35	=35	=35	=35	=35	=35	=35	=35	=35	=35
1GG	-di-	1B-	-di-	1d	-di-	1r	.	1g	-di-
=36	=36	=36	=36	=36	=36	=36	=36	=36	=36
1AA	-rent	1A	-rent	1c	-rent	1r	.	2e/	-rent
.	.	.	.	.	.	.	.	[2f/	il-
=37	=37	=37	=37	=37	=37	=37	=37	=37	=37
1BB-	il-	1D	il-	2.F/	il-	1r	.	4f/]	.
.	.	.	.	.	.	.	.	4e/	.
.	.	.	.	.	.	.	.	[2d/	.
.	.	.	.	4G/	.	.	.	.	.
=38	=38	=38	=38	=38	=38	=38	=38	=38	=38
1AA	.	1E	.	1A	.	1r	.	2d/]	.
.	.	.	.	.	.	.	.	2c#/	.
=39	=39	=39	=39	=39	=39	=39	=39	=39	=39
[1BB-	.	1D	.	1F	.	1r	.	[1d	.
=40	=40	=40	=40	=40	=40	=40	=40	=40	=40
2BB-/]	.	2E/	.	2G/	.	1r	.	1d_	.
2AA/	.	2F#/	.	2A/	.	.	.	.	.
=41	=41	=41	=41	=41	=41	=41	=41	=41	=41
[1GG	.	[1G	.	[1B-	.	1r	.	1d_	.
=42	=42	=42	=42	=42	=42	=42	=42	=42	=42
1GG]	.	1G]	.	1B-]	.	1r	.	1d]	.
=43	=43	=43	=43	=43	=43	=43	=43	=43	=43
[1D	-lum.	[1F#	-lum.	[1A	-lum.	1r	.	[1d	-lum.
=44	=44	=44	=44	=44	=44	=44	=44	=44	=44
1D]	.	1F#]	.	1A]	.	1r	.	1d]	.
!!linebreak:original
=45||	=45||	=45||	=45||	=45||	=45||	=45||	=45||	=45||	=45||
!!linebreak:original
1r	.	1r	.	[1d	Ac-	1f	Ac-	[1a	Ac-
=46	=46	=46	=46	=46	=46	=46	=46	=46	=46
1r	.	1r	.	2d\]	.	2f/	-ce-	2a/]	.
.	.	.	.	2d\	-ce-	[2f/	-den-	2a/	-ce-
=47	=47	=47	=47	=47	=47	=47	=47	=47	=47
1r	.	1r	.	2d\	-den-	2f/]	.	2a/	-den-
.	.	.	.	2d\	-tes	2f/	-tes	2a/	-tes
=48	=48	=48	=48	=48	=48	=48	=48	=48	=48
1r	.	1r	.	2c\	prin-	2g/	prin-	2.cc\	prin-
.	.	.	.	2A/	-ci-	2a/	-ci-	.	.
.	.	.	.	.	.	.	.	4cc\	-ci-
=49	=49	=49	=49	=49	=49	=49	=49	=49	=49
1r	.	1r	.	2e\	-pes	2g/	-pes	2b\	-pes
.	.	.	.	[2A/	sa-	[2cc\	sa-	2a/	.
=50	=50	=50	=50	=50	=50	=50	=50	=50	=50
1r	.	1r	.	2A/]	.	2cc\]	.	2e/	sa-
.	.	.	.	2F/	-cer-	2a/	-cer-	2f/	-cer-
=51	=51	=51	=51	=51	=51	=51	=51	=51	=51
1r	.	1r	.	[1c	-do-	1g	-do-	2f/	-do-
.	.	.	.	.	.	.	.	4e/	.
.	.	.	.	.	.	.	.	4d/	.
=52	=52	=52	=52	=52	=52	=52	=52	=52	=52
1r	.	1r	.	2c\]	.	2g/	-tum	2e/	-tum
.	.	.	.	2c\	-tum	[2g/	ad	[2e/	ad
=53	=53	=53	=53	=53	=53	=53	=53	=53	=53
1r	.	1r	.	2c\	ad	2g/]	.	2e/]	.
.	.	.	.	2d\	Pi-	2f/	Pi-	2f/	Pi-
=54	=54	=54	=54	=54	=54	=54	=54	=54	=54
1r	.	1r	.	1c	-la-	1g	-la-	1e	-la-
=55	=55	=55	=55	=55	=55	=55	=55	=55	=55
1r	.	1r	.	1F	-tum,	1a	-tum,	1f	-tum,
=56	=56	=56	=56	=56	=56	=56	=56	=56	=56
1r	.	1r	.	2r	.	2r	.	2r	.
.	.	.	.	[2c\	pe-	[2e/	pe-	[2g/	pe-
=57	=57	=57	=57	=57	=57	=57	=57	=57	=57
!!pagebreak:original
1r	.	1r	.	2c\]	.	2e/]	.	2g/]	.
.	.	.	.	2F/	-ti-	2f/	-ti-	2a/	-ti-
=58	=58	=58	=58	=58	=58	=58	=58	=58	=58
1r	.	1r	.	[1c	-e-	1e	-e-	1g	-e-
=59	=59	=59	=59	=59	=59	=59	=59	=59	=59
1r	.	1r	.	2c\]	.	2e/	.	1a	-runt
.	.	.	.	2d\	-runt	[2f/	.	.	.
=60	=60	=60	=60	=60	=60	=60	=60	=60	=60
1r	.	1r	.	1B-	il-	4f/]	.	1d	il-
.	.	.	.	.	.	4e/	.	.	.
.	.	.	.	.	.	2d/	-runt	.	.
=61	=61	=61	=61	=61	=61	=61	=61	=61	=61
1r	.	1r	.	1A	.	2d/	il-	1e	.
.	.	.	.	.	.	4c#/	.	.	.
.	.	.	.	.	.	4B/	.	.	.
=62	=62	=62	=62	=62	=62	=62	=62	=62	=62
1r	.	1r	.	[1A	-lum.	[1c#	-lum.	[1e	-lum.
=63	=63	=63	=63	=63	=63	=63	=63	=63	=63
1r	.	1r	.	1A]	.	1c#]	.	1e]	.
=64||	=64||	=64||	=64||	=64||	=64||	=64||	=64||	=64||	=64||
1D	Po-	1F	Po-	1A	Po-	1d	Po-	1d	Po-
=65	=65	=65	=65	=65	=65	=65	=65	=65	=65
2D\	-nen-	2F/	-nen-	2A/	-nen-	2d/	-nen-	2d/	-nen-
2AA/	-tes	2E/	-tes	2A/	-tes	2c#/	-tes	2c#/	-tes
=66	=66	=66	=66	=66	=66	=66	=66	=66	=66
2.D\	mi-	2.F/	mi-	2.A/	mi-	2.d/	mi-	2.d/	mi-
4D\	-li-	4F/	-li-	4B\	-li-	4d/	-li-	4d/	-li-
=67	=67	=67	=67	=67	=67	=67	=67	=67	=67
1C	-tes,	1G	-tes,	1c	-tes,	1e	-tes,	1e	-tes,
=68	=68	=68	=68	=68	=68	=68	=68	=68	=68
1F	qui	1A	qui	1c	qui	1f	qui	1f	qui
=69	=69	=69	=69	=69	=69	=69	=69	=69	=69
!!linebreak:original
2C/	cu-	2G/	cu-	2c\	cu-	2e/	cu-	2e/	cu-
2D\	-sto-	2F/	-sto-	2A/	-sto-	2d/	-sto-	2d/	-sto-
=70	=70	=70	=70	=70	=70	=70	=70	=70	=70
1GG	-di-	1B-	-di-	1d	-di-	1g	-di-	1g	-di-
=71	=71	=71	=71	=71	=71	=71	=71	=71	=71
1AA	-rent	1A	-rent	1c	-rent	2e/	-rent	2e/	-rent
.	.	.	.	.	.	[2f/	il-	[2f/	il-
=72	=72	=72	=72	=72	=72	=72	=72	=72	=72
1BB-	il-	1D	il-	2.F/	il-	4f/]	.	4f/]	.
.	.	.	.	.	.	4e/	.	4e/	.
.	.	.	.	.	.	[2d/	.	[2d/	.
.	.	.	.	4G/	.	.	.	.	.
=73	=73	=73	=73	=73	=73	=73	=73	=73	=73
1AA	.	1E	.	1A	.	2d/]	.	2d/]	.
.	.	.	.	.	.	2c#/	.	2c#/	.
=74	=74	=74	=74	=74	=74	=74	=74	=74	=74
[1BB-	.	1D	.	1F	.	[1d	.	[1d	.
=75	=75	=75	=75	=75	=75	=75	=75	=75	=75
2BB-/]	.	2E/	.	2G/	.	1d_	.	1d_	.
2AA/	.	2F#/	.	2A/	.	.	.	.	.
=76	=76	=76	=76	=76	=76	=76	=76	=76	=76
[1GG	.	[1G	.	[1B-	.	1d_	.	1d_	.
=77	=77	=77	=77	=77	=77	=77	=77	=77	=77
1GG]	.	1G]	.	1B-]	.	1d]	.	1d]	.
=78	=78	=78	=78	=78	=78	=78	=78	=78	=78
[1D	-lum.	[1F#	-lum.	[1A	-lum.	[1d	-lum.	[1d	-lum.
=79	=79	=79	=79	=79	=79	=79	=79	=79	=79
1D]	.	1F#]	.	1A]	.	1d]	.	1d]	.
==	==	==	==	==	==	==	==	==	==
*-	*-	*-	*-	*-	*-	*-	*-	*-	*-
!!!OTL: Sepulto Domino 
!!!COM: Ingegneri, Marc' Antonio
!!!CDT: ca. 1535/36-1592-07-01
!!!TXO: Latin
!!!ODT: 
!!!ARL: Klasztor OO. Paulinów na Jasnej Górze
!!!voices:	5
!!title: @{OTL}, @{GTL}, ed. @{ENC}
!!!pag:
!!!GTL: Responsoria in Hebdomada majore
!!!EFL: 
!!!YEM: Creative Commons CC/BY/NC/SA 4.0
!!!ENC: Marcin Konik
!!!END: 2015-0m-dd
!!!EED: Marcin Konik
!!!EEV: 
!!!ONB: Encoded in vim by Marcin Konik
!!!CharacterEncoding: utf-8
!!!RDF**kern: l=long note in original notation
!!!RDF**kern: i=editorial accidental
!!muse2ps: z14jc180F
